icons/cloud.svg

<svg width="24" height="24" viewBox="0 0 24 24" fill="none" xmlns="http://www.w3.org/2000/svg">
<path fill-rule="evenodd" clip-rule="evenodd" d="M12 4C9.29166 4 7 6.34197 7 9.35294C7 9.37258 7.0001 9.39219 7.00029 9.41177C7.55244 9.41193 8 9.85958 8 10.4118C8 10.9641 7.55228 11.4118 7 11.4118C6.7558 11.4118 6.51754 11.4351 6.28676 11.4797C4.45676 11.8331 3 13.5564 3 15.7059C3 18.1321 4.84394 20 7 20H17C19.1561 20 21 18.1321 21 15.7059C21 13.5564 19.5432 11.8331 17.7132 11.4797C17.4825 11.4351 17.2442 11.4118 17 11.4118C15.7164 11.4118 14.557 12.0627 13.8155 13.1076C13.4959 13.558 12.8717 13.664 12.4213 13.3444C11.9709 13.0248 11.8649 12.4006 12.1845 11.9502C13.2674 10.424 15.0123 9.41187 16.9997 9.41177C16.9999 9.39219 17 9.37258 17 9.35294C17 6.34197 14.7083 4 12 4ZM18.9891 9.76562C18.9963 9.62894 19 9.49135 19 9.35294C19 5.34665 15.9191 2 12 2C8.08092 2 5 5.34665 5 9.35294C5 9.49135 5.00365 9.62894 5.01086 9.76562C2.64878 10.634 1 12.9922 1 15.7059C1 19.1274 3.63321 22 7 22H17C20.3668 22 23 19.1274 23 15.7059C23 12.9922 21.3512 10.634 18.9891 9.76562Z" fill="black"/>
</svg>

<svg
  width="24"
  height="24"
  viewBox="0 0 24 24"
  xmlns="http://www.w3.org/2000/svg"
>
  <path
    fill-rule="evenodd"
    clip-rule="evenodd"
    d="M12 4C9.292 4 7 6.342 7 9.353v.059a1 1 0 0 1 0 2c-.244 0-.482.023-.713.068C4.457 11.833 3 13.556 3 15.706 3 18.132 4.844 20 7 20h10c2.156 0 4-1.868 4-4.294 0-2.15-1.457-3.873-3.287-4.226a3.754 3.754 0 0 0-.713-.068c-1.284 0-2.443.65-3.184 1.696a1 1 0 1 1-1.632-1.158c1.083-1.526 2.828-2.538 4.816-2.538v-.06C17 6.343 14.708 4 12 4zm6.99 5.766c.006-.137.01-.275.01-.413C19 5.347 15.92 2 12 2S5 5.347 5 9.353c0 .138.004.276.01.413C2.65 10.634 1 12.992 1 15.706 1 19.127 3.633 22 7 22h10c3.367 0 6-2.873 6-6.294 0-2.714-1.649-5.072-4.01-5.94z"
  />
</svg>
